public/img/assets/icons/weather-conditions/hail-night.svg

<svg width="120" height="120" viewBox="0 0 120 120" fill="none" xmlns="http://www.w3.org/2000/svg">
<path d="M82.9375 39.8C82.8496 39.8 82.7764 39.8294 82.7031 39.8294C82.8643 39.0656 82.9375 38.2725 82.9375 37.45C82.9375 30.9581 77.6934 25.7 71.2188 25.7C67.6152 25.7 64.4365 27.3597 62.2832 29.93C59.5586 24.6425 54.124 21 47.7813 21C38.7139 21 31.375 28.3584 31.375 37.45C31.375 38.5222 31.4922 39.5503 31.6826 40.5638C26.0723 42.4144 22 47.6578 22 53.9C22 61.6844 28.2988 68 36.0625 68H82.9375C90.7012 68 97 61.6844 97 53.9C97 46.1156 90.7012 39.8 82.9375 39.8Z" fill="#FF99FF"/>
<circle cx="67.5" cy="96.5" r="7.5" fill="#D580FF"/>
<circle cx="46" cy="78" r="6" fill="#D580FF"/>
<circle cx="71.5" cy="67.5" r="7.5" fill="#D580FF"/>
<path fill-rule="evenodd" clip-rule="evenodd" d="M78.9836 68C78.9945 67.8347 79 67.668 79 67.5C79 63.3579 75.6421 60 71.5 60C67.3579 60 64 63.3579 64 67.5C64 67.668 64.0055 67.8347 64.0164 68H78.9836Z" fill="#9966FF"/>
</svg>

<svg width="120" height="120" fill="none" xmlns="http://www.w3.org/2000/svg"><path d="M82.938 39.8c-.088 0-.162.03-.235.03.161-.764.234-1.557.234-2.38 0-6.492-5.244-11.75-11.718-11.75-3.604 0-6.782 1.66-8.936 4.23C59.56 24.642 54.124 21 47.781 21c-9.067 0-16.406 7.358-16.406 16.45 0 1.072.117 2.1.308 3.114C26.073 42.414 22 47.658 22 53.9 22 61.684 28.299 68 36.063 68h46.874C90.701 68 97 61.684 97 53.9s-6.299-14.1-14.063-14.1Z" fill="#F9F"/><circle cx="67.5" cy="96.5" r="7.5" fill="#D580FF"/><circle cx="46" cy="78" r="6" fill="#D580FF"/><circle cx="71.5" cy="67.5" r="7.5" fill="#D580FF"/><path fill-rule="evenodd" clip-rule="evenodd" d="M78.984 68a7.5 7.5 0 1 0-14.967 0h14.967Z" fill="#96F"/></svg>
